flaticon/science/syringe-1.svg

<svg xmlns="http://www.w3.org/2000/svg" width="32" height="32" viewBox="0 0 24 24">
    <path d="M 23.875 2.515625 L 23.285156 1.929688 L 22.113281 0.753906 L 21.484375 0.125 C 21.316406 -0.0429688 21.0625 -0.0429688 20.894531 0.125 C 20.726562 0.292969 20.726562 0.546875 20.894531 0.714844 L 21.230469 1.050781 L 18.546875 3.734375 L 17.621094 2.8125 C 17.453125 2.644531 17.203125 2.644531 17.035156 2.8125 L 15.859375 3.984375 C 15.691406 4.152344 15.691406 4.40625 15.859375 4.574219 L 7.847656 12.585938 C 7.191406 13.269531 6.980469 14.222656 7.214844 15.066406 L 6.082031 16.195312 C 6.039062 16.238281 6.007812 16.285156 5.988281 16.335938 L 4.824219 17.496094 C 4.460938 17.863281 4.382812 18.382812 4.597656 18.816406 L 0.125 23.285156 C -0.0429688 23.453125 -0.0429688 23.707031 0.125 23.875 C 0.210938 23.957031 0.292969 24 0.417969 24 C 0.546875 24 0.628906 23.957031 0.714844 23.875 L 5.152344 19.433594 C 5.339844 19.5625 5.566406 19.636719 5.789062 19.636719 C 6.125 19.636719 6.378906 19.511719 6.585938 19.257812 L 7.847656 18 C 7.890625 17.957031 7.921875 17.910156 7.945312 17.859375 L 8.972656 16.828125 C 9.179688 16.882812 9.390625 16.910156 9.609375 16.910156 C 10.28125 16.910156 10.910156 16.65625 11.414062 16.152344 L 19.425781 8.140625 C 19.511719 8.222656 19.59375 8.265625 19.71875 8.265625 C 19.804688 8.265625 19.929688 8.222656 20.015625 8.140625 L 21.1875 6.964844 C 21.355469 6.796875 21.355469 6.546875 21.1875 6.378906 L 20.308594 5.496094 L 22.992188 2.8125 L 23.285156 3.105469 C 23.371094 3.1875 23.453125 3.230469 23.582031 3.230469 C 23.664062 3.230469 23.789062 3.1875 23.875 3.105469 C 24.042969 2.9375 24.042969 2.683594 23.875 2.515625 Z M 15.273438 8.140625 L 17.328125 6.082031 L 17.917969 6.671875 L 15.859375 8.726562 Z M 16.449219 5.203125 L 16.761719 5.515625 L 14.683594 7.59375 L 14.351562 7.257812 Z M 6 18.671875 C 5.917969 18.796875 5.707031 18.796875 5.582031 18.671875 L 5.414062 18.503906 C 5.285156 18.417969 5.285156 18.210938 5.414062 18.082031 L 6.378906 17.117188 L 6.964844 17.707031 Z M 7.550781 17.035156 L 6.964844 16.449219 L 7.578125 15.835938 C 7.59375 15.859375 7.613281 15.882812 7.632812 15.90625 C 7.679688 16 7.75 16.089844 7.847656 16.152344 C 7.941406 16.257812 8.042969 16.351562 8.152344 16.433594 Z M 10.824219 15.609375 C 10.152344 16.238281 9.0625 16.238281 8.433594 15.609375 C 8.265625 15.441406 8.140625 15.230469 8.054688 15.019531 C 8.046875 14.996094 8.035156 14.972656 8.019531 14.949219 C 7.820312 14.363281 7.957031 13.695312 8.433594 13.214844 L 9.3125 12.332031 L 10.488281 13.511719 C 10.574219 13.59375 10.65625 13.636719 10.785156 13.636719 C 10.910156 13.636719 11.035156 13.59375 11.078125 13.511719 C 11.246094 13.34375 11.246094 13.089844 11.078125 12.921875 L 9.894531 11.742188 L 10.800781 10.832031 L 12 12 C 12.082031 12.082031 12.167969 12.125 12.292969 12.125 C 12.378906 12.125 12.503906 12.082031 12.585938 12 C 12.753906 11.832031 12.753906 11.582031 12.585938 11.414062 L 11.382812 10.242188 L 12.277344 9.339844 L 13.46875 10.53125 C 13.550781 10.617188 13.636719 10.65625 13.761719 10.65625 C 13.886719 10.65625 13.972656 10.617188 14.054688 10.53125 C 14.222656 10.363281 14.222656 10.113281 14.054688 9.945312 L 12.863281 8.75 L 13.761719 7.847656 L 16.152344 10.28125 Z M 16.742188 9.648438 L 16.449219 9.355469 L 18.523438 7.28125 L 18.839844 7.59375 Z M 19.71875 7.257812 L 16.742188 4.28125 L 17.328125 3.691406 L 18.25 4.617188 L 19.425781 5.789062 L 20.308594 6.671875 Z M 19.679688 4.867188 L 19.089844 4.28125 L 21.777344 1.59375 L 22.363281 2.183594 Z M 19.679688 4.867188"/>
</svg>

<svg xmlns="http://www.w3.org/2000/svg" width="32" height="32" viewBox="0 0 24 24">
    <path d="M23.875 2.516l-.59-.586L22.113.754l-.629-.629a.408.408 0 0 0-.59 0 .408.408 0 0 0 0 .59l.336.336-2.683 2.683-.926-.921a.404.404 0 0 0-.586 0L15.86 3.984a.408.408 0 0 0 0 .59l-8.011 8.012a2.589 2.589 0 0 0-.633 2.48l-1.133 1.13a.404.404 0 0 0-.094.14l-1.164 1.16a1.138 1.138 0 0 0-.226 1.32l-4.473 4.47a.408.408 0 0 0 0 .589.39.39 0 0 0 .293.125c.129 0 .21-.043.297-.125l4.437-4.441c.188.128.414.203.637.203.336 0 .59-.125.797-.38L7.848 18a.48.48 0 0 0 .097-.14l1.028-1.032a2.51 2.51 0 0 0 2.441-.676l8.012-8.011a.39.39 0 0 0 .293.125.47.47 0 0 0 .297-.125l1.172-1.176a.404.404 0 0 0 0-.586l-.88-.883 2.684-2.684.293.293a.392.392 0 0 0 .297.125.468.468 0 0 0 .293-.125.408.408 0 0 0 0-.59zM15.273 8.14l2.055-2.059.59.59-2.059 2.055zm1.176-2.938l.313.313-2.078 2.078-.332-.336zM6 18.672c-.082.125-.293.125-.418 0l-.168-.168c-.129-.086-.129-.293 0-.422l.965-.965.586.59zm1.55-1.637l-.585-.586.613-.613c.016.023.035.047.055.07a.616.616 0 0 0 .215.246c.093.106.195.2.304.282zm3.274-1.426c-.672.63-1.761.63-2.39 0a1.793 1.793 0 0 1-.38-.59.296.296 0 0 0-.034-.07 1.682 1.682 0 0 1 .414-1.734l.879-.883 1.175 1.18a.392.392 0 0 0 .297.125c.125 0 .25-.043.293-.125a.408.408 0 0 0 0-.59l-1.183-1.18.906-.91L12 12a.384.384 0 0 0 .293.125c.086 0 .21-.043.293-.125a.404.404 0 0 0 0-.586l-1.203-1.172.894-.902 1.192 1.191a.37.37 0 0 0 .293.125.37.37 0 0 0 .293-.125.404.404 0 0 0 0-.586L12.863 8.75l.899-.902 2.39 2.433zm5.918-5.96l-.293-.294 2.074-2.074.317.313zm2.977-2.391L16.742 4.28l.586-.59.922.926 1.176 1.172.883.883zm-.04-2.39l-.59-.587 2.688-2.687.586.59zm0 0"/>
</svg>
